X: 37198
T: Sir Torquil Monroe
R: jig
M: 6/8
K: Gmajor
DGG G2 A|BGG G2 F|EAA ABG|FDD D2 D|
DGG G2 A|BGG G2 F|EBA FEF|G3 G2:|
Bcd dBG|cee e2 G|FGA AFD|
[1 Bdd d2 c|Bcd dBG|cee e2 G|FGA DEF|G3 G2:|
[2 Bdd d2 d|def gfe|dcB AGF|EFG AFD|G3 G2||

